X:1
T:Nu sijt willekome
T:arr. Toebosch
%%score [ 1 2 3 4 ]
L:1/8
M:4/4
K:A
V:1 treble nm="Sopraan" snm="Sop."
V:2 treble nm="Alt" snm="A."
V:3 treble-8 nm="Tenor" snm="T."
V:4 bass nm="Bas" snm="Bs."
V:1
 A2 A2 A2 G2 | F4 E4 | A2 A2 B2 B2 | c6 c2 | c2 c2 c2 c2 | e4 c2 c2 | B4 c4 | A6 z2 | A2 A2 B2 c2 | %9
w: 1..Nu zijt wel- le-|ko- me,|Je- su, lie- ven|Heer; Gij|komt van al- zo|ho- ge, van|al zo|veer!|Nu zijt wel- le-|
 d2 c2 B2 A2 | A2 G2 F2 F2 | E6 z2 | B2 A2 B2 c2 | d4 c2 B2 | A2 F2 G2 A2 | B8 | E4 F2 G2 | A8 |] %18
w: ko- * van den|ho- gen he- mel|neer;|Hier al in dit|aard- rijk zijt|Gij ge- zien nooit|meer|Ky- ri- e-|leis|
V:2
 E2 E2 D2 C2 | (D2 F2) B,4 | C2 D2 D2 D2 | E6 E2 | F2 G2 F2 E2 | D4 E2 E2 | F4 E4 | E6 z2 | %8
w: Nu zijt wel- le|ko- * me|Je- su- lie- ven|Heer. Gij|komt van al- zo|ho- ge, van|al- zo|veer!|
 F2 E2 F2 A2 | A2 A2 =G2 E2 | F2 E2 F2 F2 | E6 z2 | F2 E2 F2 E2 | (D2 E2) E2 E2 | C2 D2 E2 E2 | %15
w: Nu zijt wel- le-|ko- me van den|ho- gen- he- mel|neer;|Hier- al in dit|aard- * rijk zijt|gij- ge- zien nooit|
 (D4 E4) | C4 D2 D2 | E8 |] %18
w: |Ky- ri- e-|leis.|
V:3
 c2 B2 A2 A2 | A4 G4 | F2 F2 F2 G2 | G6 G2 | A2 A2 A2 G2 | (E2 F2) A2 G2 | F4 G4 | A6 z2 | %8
w: Nu zijt wel- le-|ko- me,|Je- su, lie- ven|Heer; Gij|komt van al- zo|ho- * ge van|al- zo|veer!|
 d2 e2 d2 e2 | f2 f2 d2 c2 | c2 B2 A2 A2 | (G2 A2 B2) z2 | d2 c2 B2 G2 | (A2 B2) A2 G2 | %14
w: Nu zijt wel- le-|ko- me van den|ho- gen he- mel|neer _ .|Hier al in dit|* rijk * zijt|
 G2 B2 B2 E2 | (F4 G4) | G4 A2 B2 | c8 |] %18
w: Gij ge- zien nooit|meer _|Ky- ri- e-|leis.-|
V:4
 A,2 G,2 F,2 E,2 | D,4 E,4 | E,2 D,2 C,2 B,,2 | A,,6 C,2 | F,2 E,2 D,2 C,2 | B,,4 A,,2 C,2 | %6
w: Nu zijt wel- le-|ko- me,|Je- su lie- ven|Heer Gij|komt van al- zo|ho- ge van|
 D,4 E,4 | A,6 z2 | D2 C2 B,2 A,2 | D,2 F,2 =G,2 A,2 | F,2 C,2 D,2 B,,2 | E,6 z2 | %12
w: al- zo|veer!|Nu zijt wel- le-|ko- me van den|ho- gen he- mel|neer;|
 B,,2 C,2 D,2 E,2 | (F,2 G,2) A,2 E,2 | F,2 B,2 E,D, C,2 | (B,,4 E,4) | C,4 C,2 B,,2 | A,,8 |] %18
w: Hier al in dit|aard- * rijk zijt|Gij ge- zien * nooit|meer _|Ky- ri- e-|leis.-|

